64x64/apps/brave-browser-dev.svg

<svg xmlns="http://www.w3.org/2000/svg" width="64" height="64"><path style="opacity:.2" d="m23.144 5-4.712 4.794c-.062.02-.523-.364-1.025-.512-1.346-.395-3.055-.328-4.216.2-.759.345-1.054.588-2.86 2.363C8.384 13.757 8 14.216 8 14.623c0 .105.704 1.132 1.05 1.936l.628 1.462-.807 2.215a267.678 267.678 0 0 0-.854 2.366c-.07.213 6.234 24.488 6.563 25.27a10.072 10.072 0 0 0 2.755 3.735c1.1.942 12.257 8.557 13.362 9.12.327.166.853.262 1.303.273.45-.011.976-.107 1.303-.273 1.105-.563 12.262-8.178 13.362-9.12a10.072 10.072 0 0 0 2.755-3.735c.329-.782 6.632-25.057 6.563-25.27-.027-.084-.41-1.148-.854-2.366l-.807-2.215.628-1.462c.347-.804 1.05-1.831 1.05-1.936 0-.407-.384-.866-2.331-2.778-1.806-1.775-2.101-2.018-2.86-2.363-1.161-.527-2.87-.595-4.216-.2-.502.148-.963.532-1.025.512L40.856 5H32z"/><path style="fill:#1976d2" d="m23.144 4-4.712 4.794c-.062.02-.523-.364-1.025-.512-1.346-.395-3.055-.327-4.216.2-.759.345-1.054.588-2.86 2.363C8.384 12.757 8 13.216 8 13.623c0 .105.704 1.132 1.05 1.936l.628 1.462-.807 2.215a267.678 267.678 0 0 0-.854 2.366c-.07.213 6.234 24.488 6.563 25.27a10.072 10.072 0 0 0 2.755 3.735c1.1.942 12.257 8.557 13.362 9.12.327.166.853.262 1.303.273.45-.011.976-.107 1.303-.273 1.105-.563 12.262-8.178 13.362-9.12a10.072 10.072 0 0 0 2.755-3.735c.329-.782 6.632-25.057 6.563-25.27-.027-.084-.41-1.148-.854-2.366l-.807-2.215.628-1.462c.347-.804 1.05-1.831 1.05-1.936 0-.407-.384-.866-2.331-2.778-1.806-1.775-2.101-2.018-2.86-2.363-1.161-.527-2.87-.595-4.216-.2-.502.148-.963.532-1.025.512L40.856 4H32z"/><path style="opacity:.2" d="M34.257 47.494s2.454-1.617 4.639-3.18c1.229-.88 1.423-1.104 1.222-1.415-.161-.248-4.127-2.198-6.022-2.961-1.994-.802-2.204-.803-4.138-.016-1.735.704-5.637 2.633-5.965 2.949-.338.326-.168.625.684 1.201 1.756 1.187 5.122 3.471 5.122 3.471 2.288 1.95 2.111 1.951 4.458-.048zm-9.2-6.975c2.38-1.118 2.736-1.349 4.556-2.96 1.529-1.354 1.812-1.757 1.595-2.27-.074-.173-1.223-1.233-2.554-2.355-3.146-2.651-3.015-2.277-1.818-5.154.711-1.709.897-2.281.894-2.755-.004-.715-.269-1.252-.803-1.623-.217-.151-2.118-.917-4.224-1.703-2.107-.786-3.819-1.482-3.804-1.545.033-.146 2.357-.399 4.044-.44l1.275-.032 2.346.818c2.046.715 2.367.861 2.521 1.151.097.183.175.429.173.546-.001.117-.381 1.815-.843 3.773-.809 3.428-.832 3.567-.621 3.776.333.333 3.605 1.104 4.626 1.026 1.167-.089 3.55-.8 3.791-1.038.194-.194.157-.412-.635-3.764-.463-1.958-.843-3.656-.844-3.773-.002-.117.077-.364.174-.548.154-.29.456-.432 2.278-1.069 2.939-1.028 2.879-1.019 5.549-.782 1.245.11 2.313.247 2.374.304.066.062-.008.15-.182.215l-3.817 1.432c-1.938.727-3.727 1.453-3.976 1.614-.585.377-.868.917-.872 1.658-.003.469.181 1.036.873 2.69.482 1.153.877 2.205.877 2.337 0 .535-.399.967-2.611 2.826-1.271 1.069-2.399 2.1-2.507 2.292-.108.192-.169.485-.137.652.056.285 1.578 1.755 3.128 3.022.651.532 4.594 2.999 5.226 3.099.529.084 1.094-.705 2.02-1.471.907-.752 1.448-1.504 1.815-2.526.345-.958.258-1.603-.424-3.156-.52-1.185-.658-1.836-.484-2.28.041-.102 1.449-1.434 3.129-2.96 3.661-3.324 4.535-3.919 4.736-4.513.223-.66.066-2.527-.435-3.401C50.27 19.542 45.3 13 44.878 13c-2.174.348-3.993 1.117-6.284 1.47-.18 0-.946-.187-1.701-.417C33.666 13.075 32.62 13 31.995 13s-1.671.075-4.898 1.053c-.755.229-1.529.417-1.719.417-2.257-.326-3.93-1.204-6.267-1.47-.364.241-3.596 4.673-4.934 6.61-1.573 2.276-2.018 3.569-2.146 4.436-.179 1.213.276 1.417 4.977 5.677 1.581 1.432 2.907 2.687 2.947 2.787.176.449.037 1.126-.476 2.312-.704 1.629-.767 2.081-.427 3.065.369 1.069.996 1.934 1.942 2.68.88.694 1.22 1.39 1.74 1.401.185.004 1.231-.936 2.323-1.449z"/><path style="fill:#f4f4f7" d="M34.257 46.494s2.454-1.617 4.639-3.18c1.229-.88 1.423-1.104 1.222-1.415-.161-.248-4.127-2.198-6.022-2.961-1.994-.802-2.204-.803-4.138-.016-1.735.704-5.637 2.633-5.965 2.949-.338.326-.168.625.684 1.201 1.756 1.187 5.122 3.471 5.122 3.471 2.288 1.95 2.111 1.951 4.458-.048zm-9.2-6.975c2.38-1.118 2.736-1.349 4.556-2.96 1.529-1.354 1.812-1.757 1.595-2.27-.074-.173-1.223-1.233-2.554-2.355-3.146-2.651-3.015-2.277-1.818-5.154.711-1.709.897-2.281.894-2.755-.004-.715-.269-1.252-.803-1.623-.217-.151-2.118-.917-4.224-1.703-2.107-.786-3.819-1.482-3.804-1.545.033-.146 2.357-.399 4.044-.44l1.275-.032 2.346.818c2.046.715 2.367.861 2.521 1.151.097.183.175.429.173.546-.001.117-.381 1.815-.843 3.773-.809 3.428-.832 3.567-.621 3.776.333.333 3.605 1.104 4.626 1.026 1.167-.089 3.55-.8 3.791-1.038.194-.194.157-.412-.635-3.764-.463-1.958-.843-3.656-.844-3.773-.002-.117.077-.364.174-.548.154-.29.456-.432 2.278-1.069 2.939-1.028 2.879-1.019 5.549-.782 1.245.11 2.313.247 2.374.304.066.062-.008.15-.182.215l-3.817 1.432c-1.938.727-3.727 1.453-3.976 1.614-.585.377-.868.917-.872 1.658-.003.469.181 1.036.873 2.69.482 1.153.877 2.205.877 2.337 0 .535-.399.967-2.611 2.826-1.271 1.069-2.399 2.1-2.507 2.292-.108.192-.169.486-.137.652.056.285 1.578 1.755 3.128 3.022.651.532 4.594 2.999 5.226 3.099.529.084 1.094-.705 2.02-1.471.907-.752 1.448-1.504 1.815-2.525.345-.959.258-1.604-.424-3.157-.52-1.185-.658-1.836-.484-2.28.041-.102 1.449-1.434 3.129-2.96 3.661-3.324 4.535-3.919 4.736-4.513.223-.659.066-2.527-.435-3.401C50.27 18.542 45.3 12 44.878 12c-2.174.348-3.993 1.117-6.284 1.47-.18 0-.946-.187-1.701-.417C33.666 12.075 32.62 12 31.995 12s-1.671.075-4.898 1.053c-.755.229-1.529.417-1.719.417-2.257-.326-3.93-1.204-6.267-1.47-.364.241-3.596 4.673-4.934 6.61-1.573 2.276-2.018 3.569-2.146 4.436-.179 1.213.276 1.417 4.977 5.677 1.581 1.432 2.907 2.687 2.947 2.787.176.449.037 1.126-.476 2.312-.704 1.629-.767 2.081-.427 3.065.369 1.069.996 1.934 1.942 2.68.88.694 1.22 1.39 1.74 1.401.185.004 1.231-.936 2.323-1.449z"/><path style="opacity:.1;fill:#f4f4f7" d="m23.145 4-4.713 4.793c-.063.02-.524-.362-1.026-.51-1.346-.395-3.054-.328-4.215.2-.759.345-1.053.586-2.859 2.361C8.385 12.757 8 13.217 8 13.623c0 .033.14.263.246.441.277-.4.846-1.002 2.086-2.22 1.806-1.775 2.1-2.016 2.859-2.362 1.161-.527 2.869-.594 4.215-.199.502.148.963.53 1.026.51L23.145 5h17.71l4.713 4.793c.063.02.524-.362 1.026-.51 1.346-.395 3.054-.328 4.215.2.759.345 1.053.586 2.859 2.361 1.24 1.218 1.809 1.82 2.086 2.22.105-.178.246-.408.246-.441 0-.406-.385-.866-2.332-2.779-1.806-1.775-2.1-2.016-2.859-2.362-1.161-.527-2.869-.594-4.215-.199-.502.148-.963.53-1.026.51L40.855 4H32zM9.48 17.562l-.609 1.674a292.861 292.861 0 0 0-.855 2.366c-.003.008.129.524.144.599.116-.325.342-.953.711-1.965l.807-2.215zm45.04 0-.198.459.807 2.215c.369 1.012.595 1.64.711 1.965.015-.075.147-.591.144-.599-.027-.084-.411-1.148-.855-2.366z"/></svg>

<svg xmlns="http://www.w3.org/2000/svg" width="64" height="64" version="1.1">
 <path style="opacity:0.2" d="M 23.144,5 18.432,9.7938 C 18.37,9.8144 17.909,9.43 17.407,9.2824 16.061,8.8871 14.352,8.9545 13.191,9.482 12.432,9.8271 12.137,10.07 10.331,11.845 8.3843,13.757 8,14.216 8,14.623 8,14.728 8.7035,15.755 9.0498,16.559 L 9.6781,18.021 8.8707,20.236 C 8.4268,21.454 8.0437,22.518 8.0165,22.602 7.9477,22.815 14.251,47.09 14.58,47.872 15.178,49.292 16.118,50.565 17.335,51.607 18.435,52.549 29.592,60.164 30.697,60.727 31.024,60.893 31.55,60.989 32,61 32.45,60.989 32.976,60.893 33.303,60.727 34.408,60.164 45.565,52.549 46.665,51.607 47.882,50.565 48.822,49.292 49.42,47.872 49.749,47.09 56.052,22.815 55.983,22.602 55.956,22.518 55.573,21.454 55.129,20.236 L 54.322,18.021 54.95,16.559 C 55.297,15.755 56,14.728 56,14.623 56,14.216 55.616,13.757 53.669,11.845 51.863,10.07 51.568,9.8271 50.809,9.482 49.648,8.9545 47.939,8.8871 46.593,9.2824 46.091,9.43 45.63,9.8144 45.568,9.7938 L 40.856,5 H 32 Z"/>
 <path style="fill:#1976d2" d="M 23.144,4 18.432,8.7938 C 18.37,8.8144 17.909,8.43 17.407,8.2824 16.061,7.8871 14.352,7.9545 13.191,8.482 12.432,8.8271 12.137,9.0699 10.331,10.845 8.3843,12.757 8,13.216 8,13.623 8,13.728 8.7035,14.755 9.0498,15.559 L 9.6781,17.021 8.8707,19.236 C 8.4268,20.454 8.0437,21.518 8.0165,21.602 7.9477,21.815 14.251,46.09 14.58,46.872 15.178,48.292 16.118,49.565 17.335,50.607 18.435,51.549 29.592,59.164 30.697,59.727 31.024,59.893 31.55,59.989 32,60 32.45,59.989 32.976,59.893 33.303,59.727 34.408,59.164 45.565,51.549 46.665,50.607 47.882,49.565 48.822,48.292 49.42,46.872 49.749,46.09 56.052,21.815 55.983,21.602 55.956,21.518 55.573,20.454 55.129,19.236 L 54.322,17.021 54.95,15.559 C 55.297,14.755 56,13.728 56,13.623 56,13.216 55.616,12.757 53.669,10.845 51.863,9.0699 51.568,8.8271 50.809,8.482 49.648,7.9545 47.939,7.8871 46.593,8.2824 46.091,8.43 45.63,8.8144 45.568,8.7938 L 40.856,4 H 32 Z"/>
 <path style="opacity:0.2" d="M 34.257,47.494 C 34.257,47.494 36.711,45.877 38.896,44.314 40.125,43.434 40.319,43.21 40.118,42.899 39.957,42.651 35.991,40.701 34.096,39.938 32.102,39.136 31.892,39.135 29.958,39.922 28.223,40.626 24.321,42.555 23.993,42.871 23.655,43.197 23.825,43.496 24.677,44.072 26.433,45.259 29.799,47.543 29.799,47.543 32.087,49.493 31.91,49.494 34.257,47.495 Z M 25.057,40.519 C 27.437,39.401 27.793,39.17 29.613,37.559 31.142,36.205 31.425,35.802 31.208,35.289 31.134,35.116 29.985,34.056 28.654,32.934 25.508,30.283 25.639,30.657 26.836,27.78 27.547,26.071 27.733,25.499 27.73,25.025 27.726,24.31 27.461,23.773 26.927,23.402 26.71,23.251 24.809,22.485 22.703,21.699 20.596,20.913 18.884,20.217 18.899,20.154 18.932,20.008 21.256,19.755 22.943,19.714 L 24.218,19.682 26.564,20.5 C 28.61,21.215 28.931,21.361 29.085,21.651 29.182,21.834 29.26,22.08 29.258,22.197 29.257,22.314 28.877,24.012 28.415,25.97 27.606,29.398 27.583,29.537 27.794,29.746 28.127,30.079 31.399,30.85 32.42,30.772 33.587,30.683 35.97,29.972 36.211,29.734 36.405,29.54 36.368,29.322 35.576,25.97 35.113,24.012 34.733,22.314 34.732,22.197 34.73,22.08 34.809,21.833 34.906,21.649 35.06,21.359 35.362,21.217 37.184,20.58 40.123,19.552 40.063,19.561 42.733,19.798 43.978,19.908 45.046,20.045 45.107,20.102 45.173,20.164 45.099,20.252 44.925,20.317 44.764,20.378 43.046,21.023 41.108,21.749 39.17,22.476 37.381,23.202 37.132,23.363 36.547,23.74 36.264,24.28 36.26,25.021 36.257,25.49 36.441,26.057 37.133,27.711 37.615,28.864 38.01,29.916 38.01,30.048 38.01,30.583 37.611,31.015 35.399,32.874 34.128,33.943 33,34.974 32.892,35.166 32.784,35.358 32.723,35.651 32.755,35.818 32.811,36.103 34.333,37.573 35.883,38.84 36.534,39.372 40.477,41.839 41.109,41.939 41.638,42.023 42.203,41.234 43.129,40.468 44.036,39.716 44.577,38.964 44.944,37.942 45.289,36.984 45.202,36.339 44.52,34.786 44,33.601 43.862,32.95 44.036,32.506 44.077,32.404 45.485,31.072 47.165,29.546 50.826,26.222 51.7,25.627 51.901,25.033 52.124,24.373 51.967,22.506 51.466,21.632 50.27,19.542 45.3,13 44.878,13 42.704,13.348 40.885,14.117 38.594,14.47 38.414,14.47 37.648,14.283 36.893,14.053 33.666,13.075 32.62,13 31.995,13 31.37,13 30.324,13.075 27.097,14.053 26.342,14.282 25.568,14.47 25.378,14.47 23.121,14.144 21.448,13.266 19.111,13 18.747,13.241 15.515,17.673 14.177,19.61 12.604,21.886 12.159,23.179 12.031,24.046 11.852,25.259 12.307,25.463 17.008,29.723 18.589,31.155 19.915,32.41 19.955,32.51 20.131,32.959 19.992,33.636 19.479,34.822 18.775,36.451 18.712,36.903 19.052,37.887 19.421,38.956 20.048,39.821 20.994,40.567 21.874,41.261 22.214,41.957 22.734,41.968 22.919,41.972 23.965,41.032 25.057,40.519 Z"/>
 <path style="fill:#f4f4f7" d="M 34.257,46.494 C 34.257,46.494 36.711,44.877 38.896,43.314 40.125,42.434 40.319,42.21 40.118,41.899 39.957,41.651 35.991,39.701 34.096,38.938 32.102,38.136 31.892,38.135 29.958,38.922 28.223,39.626 24.321,41.555 23.993,41.871 23.655,42.197 23.825,42.496 24.677,43.072 26.433,44.259 29.799,46.543 29.799,46.543 32.087,48.493 31.91,48.494 34.257,46.495 Z M 25.057,39.519 C 27.437,38.401 27.793,38.17 29.613,36.559 31.142,35.205 31.425,34.802 31.208,34.289 31.134,34.116 29.985,33.056 28.654,31.934 25.508,29.283 25.639,29.657 26.836,26.78 27.547,25.071 27.733,24.499 27.73,24.025 27.726,23.31 27.461,22.773 26.927,22.402 26.71,22.251 24.809,21.485 22.703,20.699 20.596,19.913 18.884,19.217 18.899,19.154 18.932,19.008 21.256,18.755 22.943,18.714 L 24.218,18.682 26.564,19.5 C 28.61,20.215 28.931,20.361 29.085,20.651 29.182,20.834 29.26,21.08 29.258,21.197 29.257,21.314 28.877,23.012 28.415,24.97 27.606,28.398 27.583,28.537 27.794,28.746 28.127,29.079 31.399,29.85 32.42,29.772 33.587,29.683 35.97,28.972 36.211,28.734 36.405,28.54 36.368,28.322 35.576,24.97 35.113,23.012 34.733,21.314 34.732,21.197 34.73,21.08 34.809,20.833 34.906,20.649 35.06,20.359 35.362,20.217 37.184,19.58 40.123,18.552 40.063,18.561 42.733,18.798 43.978,18.908 45.046,19.045 45.107,19.102 45.173,19.164 45.099,19.252 44.925,19.317 44.764,19.378 43.046,20.023 41.108,20.749 39.17,21.476 37.381,22.202 37.132,22.363 36.547,22.74 36.264,23.28 36.26,24.021 36.257,24.49 36.441,25.057 37.133,26.711 37.615,27.864 38.01,28.916 38.01,29.048 38.01,29.583 37.611,30.015 35.399,31.874 34.128,32.943 33,33.974 32.892,34.166 32.784,34.358 32.723,34.652 32.755,34.818 32.811,35.103 34.333,36.573 35.883,37.84 36.534,38.372 40.477,40.839 41.109,40.939 41.638,41.023 42.203,40.234 43.129,39.468 44.036,38.716 44.577,37.964 44.944,36.943 45.289,35.984 45.202,35.339 44.52,33.786 44,32.601 43.862,31.95 44.036,31.506 44.077,31.404 45.485,30.072 47.165,28.546 50.826,25.222 51.7,24.627 51.901,24.033 52.124,23.374 51.967,21.506 51.466,20.632 50.27,18.542 45.3,12 44.878,12 42.704,12.348 40.885,13.117 38.594,13.47 38.414,13.47 37.648,13.283 36.893,13.053 33.666,12.075 32.62,12 31.995,12 31.37,12 30.324,12.075 27.097,13.053 26.342,13.282 25.568,13.47 25.378,13.47 23.121,13.144 21.448,12.266 19.111,12 18.747,12.241 15.515,16.673 14.177,18.61 12.604,20.886 12.159,22.179 12.031,23.046 11.852,24.259 12.307,24.463 17.008,28.723 18.589,30.155 19.915,31.41 19.955,31.51 20.131,31.959 19.992,32.636 19.479,33.822 18.775,35.451 18.712,35.903 19.052,36.887 19.421,37.956 20.048,38.821 20.994,39.567 21.874,40.261 22.214,40.957 22.734,40.968 22.919,40.972 23.965,40.032 25.057,39.519 Z"/>
 <path style="opacity:0.1;fill:#f4f4f7" d="M 23.145,4 18.432,8.793 C 18.369,8.8136 17.908,8.4307 17.406,8.2832 16.06,7.8878 14.352,7.9549 13.191,8.4824 12.432,8.8275 12.138,9.0691 10.332,10.844 8.3852,12.757 8,13.217 8,13.623 8,13.656 8.1409,13.886 8.2461,14.064 8.5229,13.664 9.0925,13.062 10.332,11.844 12.138,10.069 12.432,9.8275 13.191,9.4824 14.352,8.9549 16.06,8.8878 17.406,9.2832 17.908,9.4307 18.369,9.8136 18.432,9.793 L 23.145,5 H 32 40.855 L 45.568,9.793 C 45.631,9.8136 46.092,9.4307 46.594,9.2832 47.94,8.8878 49.648,8.9549 50.809,9.4824 51.568,9.8275 51.862,10.069 53.668,11.844 54.908,13.062 55.477,13.664 55.754,14.064 55.859,13.886 56,13.656 56,13.623 56,13.217 55.615,12.757 53.668,10.844 51.862,9.0691 51.568,8.8275 50.809,8.4824 49.648,7.9549 47.94,7.8878 46.594,8.2832 46.092,8.4307 45.631,8.8136 45.568,8.793 L 40.855,4 H 32 Z M 9.4805,17.562 8.8711,19.236 C 8.4272,20.454 8.0428,21.518 8.0156,21.602 8.013,21.61 8.1449,22.126 8.1602,22.201 8.2758,21.876 8.5023,21.248 8.8711,20.236 L 9.6777,18.021 Z M 54.52,17.562 54.322,18.021 55.129,20.236 C 55.498,21.248 55.724,21.876 55.84,22.201 55.855,22.126 55.987,21.61 55.984,21.602 55.957,21.518 55.573,20.454 55.129,19.236 Z"/>
</svg>
